src/work/blix/blixmap/static/images/icon-small-privacy-friends.svg

<svg height="24" viewBox="0 0 25 24" width="25" xmlns="http://www.w3.org/2000/svg"><path d="m17.9455283 20h5.5131592c.553577 0 .9517503-.4530363.8910039-.9970301l-.6706687-6.0059398c-.0614891-.5506445-.5583164-.9970301-1.1198556-.9970301h-5.8827488c.3907326.581996.6459984 1.2565088.7124451 1.9756139zm.2620972-10c1.6568542 0 3-1.34314575 3-3s-1.3431458-3-3-3c-1.6568543 0-3 1.34314575-3 3s1.3431457 3 3 3zm-10.05671005 0c2.76142375 0 5.00000005-2.23857625 5.00000005-5s-2.2385763-5-5.00000005-5-5 2.23857625-5 5 2.23857625 5 5 5zm-5.14420691 2c-1.10594632 0-2.09007889.8823887-2.1991823 1.9815559l-.79774198 8.0368882c-.10862853 1.0943831.69986815 1.9815559 1.79822488 1.9815559h12.68586116c1.1017607 0 1.9073283-.8823887 1.7982249-1.9815559l-.797742-8.0368882c-.1086285-1.0943831-1.0908085-1.9815559-2.1991823-1.9815559z" fill-rule="evenodd"/></svg>

<?xml version="1.0" encoding="UTF-8" standalone="no"?>
<svg width="25px" height="24px" viewBox="0 0 25 24" version="1.1" xmlns="http://www.w3.org/2000/svg" xmlns:xlink="http://www.w3.org/1999/xlink" xmlns:sketch="http://www.bohemiancoding.com/sketch/ns">
    <!-- Generator: Sketch 3.1.1 (8761) - http://www.bohemiancoding.com/sketch -->
    <title>icon-small-privacy-friends</title>
    <desc>Created with Sketch.</desc>
    <defs></defs>
    <g id="List-View" stroke="none" stroke-width="1" fill="none" fill-rule="evenodd" sketch:type="MSPage">
        <g id="icon-small-privacy-friends" sketch:type="MSLayerGroup" fill="#000000">
            <path d="M17.9455283,20 L23.4586875,20 C24.0122645,20 24.4104378,19.5469637 24.3496914,19.0029699 L23.6790227,12.9970301 C23.6175336,12.4463856 23.1207063,12 22.5591671,12 L16.6764183,12 C17.0671509,12.581996 17.3224167,13.2565088 17.3888634,13.9756139 L17.9455283,20 L17.9455283,20 Z M18.2076255,10 C19.8644797,10 21.2076255,8.65685425 21.2076255,7 C21.2076255,5.34314575 19.8644797,4 18.2076255,4 C16.5507712,4 15.2076255,5.34314575 15.2076255,7 C15.2076255,8.65685425 16.5507712,10 18.2076255,10 Z M8.15091545,10 C10.9123392,10 13.1509155,7.76142375 13.1509155,5 C13.1509155,2.23857625 10.9123392,0 8.15091545,0 C5.3894917,0 3.15091545,2.23857625 3.15091545,5 C3.15091545,7.76142375 5.3894917,10 8.15091545,10 Z M3.00670854,12 C1.90076222,12 0.916629648,12.8823887 0.80752624,13.9815559 L0.00978426265,22.0184441 C-0.0988442693,23.1128272 0.709652409,24 1.80800914,24 L14.4938703,24 C15.595631,24 16.4011986,23.1176113 16.2920952,22.0184441 L15.4943532,13.9815559 C15.3857247,12.8871728 14.4035447,12 13.2951709,12 L3.00670854,12 Z" id="Oval-47" sketch:type="MSShapeGroup"></path>
        </g>
    </g>
</svg>
